actions/symbolic/window-maximize-symbolic.svg

<?xml version="1.0" encoding="UTF-8" standalone="no"?>
<svg
   xmlns:dc="http://purl.org/dc/elements/1.1/"
   xmlns:cc="http://creativecommons.org/ns#"
   xmlns:rdf="http://www.w3.org/1999/02/22-rdf-syntax-ns#"
   xmlns:svg="http://www.w3.org/2000/svg"
   xmlns="http://www.w3.org/2000/svg"
   xmlns:sodipodi="http://sodipodi.sourceforge.net/DTD/sodipodi-0.dtd"
   xmlns:inkscape="http://www.inkscape.org/namespaces/inkscape"
   viewBox="0 0 16 16"
   id="svg3487"
   version="1.1"
   inkscape:version="0.91 r13725"
   sodipodi:docname="window-maximize-symbolic.svg">
  <metadata
     id="metadata3495">
    <rdf:RDF>
      <cc:Work
         rdf:about="">
        <dc:format>image/svg+xml</dc:format>
        <dc:type
           rdf:resource="http://purl.org/dc/dcmitype/StillImage" />
      </cc:Work>
    </rdf:RDF>
  </metadata>
  <sodipodi:namedview
     pagecolor="#ffffff"
     bordercolor="#666666"
     borderopacity="1"
     objecttolerance="10"
     gridtolerance="10"
     guidetolerance="10"
     inkscape:pageopacity="0"
     inkscape:pageshadow="2"
     inkscape:window-width="640"
     inkscape:window-height="480"
     id="namedview3493"
     showgrid="false"
     inkscape:zoom="39.8125"
     inkscape:cx="3.5290424"
     inkscape:cy="8"
     inkscape:current-layer="svg3487" />
  <defs
     id="defs3051">
    <style
       type="text/css"
       id="current-color-scheme">
      .ColorScheme-Text {
        color:#bebebe;
      }
      </style>
  </defs>
  <path
     style="color:#bebebe;fill:currentColor;fill-opacity:1;stroke:none"
     class="ColorScheme-Text"
     d="M 8,2 A 6.0000003,6.0000003 0 0 0 2,8 6.0000003,6.0000003 0 0 0 8,14 6.0000003,6.0000003 0 0 0 14,8 6.0000003,6.0000003 0 0 0 8,2 Z m 2.791332,2.9122988 c 0.200238,-0.011025 0.353025,0.1414957 0.341733,0.341733 l -0.185988,3.5761087 c -0.0108,0.1997483 -0.181283,0.3735487 -0.381048,0.3840735 l 0,-0.003 c -0.096,0.0077 -0.19231,-0.019837 -0.261594,-0.089214 L 6.921875,5.733392 C 6.8540375,5.6654645 6.8238118,5.573888 6.8311498,5.4793602 l 0,-0.00757 c 0.010327,-0.2002168 0.18081,-0.370997 0.381048,-0.3810432 l 3.5625002,-0.1723786 0.01664,-0.00608 z m -5.3573602,1.876512 0,0.003 c 0.096001,-0.00772 0.1923082,0.01983 0.2615924,0.089213 l 3.3825612,3.388611 c 0.067838,0.06793 0.098078,0.159503 0.090725,0.254031 l 0.00146,0.006 c -0.010331,0.200222 -0.1823238,0.371002 -0.38256,0.381048 l -3.5609878,0.173891 -0.018142,0.003 C 5.0083872,11.098644 4.8555995,10.946119 4.8668915,10.745882 L 5.0529178,7.1697732 c 0.0108,-0.1997497 0.1812824,-0.3705224 0.381048,-0.381048 z"
     id="path3491"
     inkscape:connector-curvature="0" />
</svg>

<svg xmlns="http://www.w3.org/2000/svg" viewBox="0 0 16 16">
  <path fill="#bebebe" d="M8 2a6 6 0 0 0-6 6 6 6 0 0 0 6 6 6 6 0 0 0 6-6 6 6 0 0 0-6-6zm2.791 2.912c.2-.01.353.142.342.342l-.186 3.576a.415.415 0 0 1-.381.384v-.003a.327.327 0 0 1-.262-.089L6.922 5.733a.32.32 0 0 1-.09-.254v-.007a.41.41 0 0 1 .38-.381l3.563-.173zM5.434 6.79v.003a.327.327 0 0 1 .262.089l3.382 3.389a.32.32 0 0 1 .09.254l.002.006a.412.412 0 0 1-.382.38l-3.561.175-.018.003a.316.316 0 0 1-.342-.342l.186-3.576c.01-.2.181-.37.381-.381z"/>
</svg>
